X: 17968
T: Huggaremamma
R: waltz
M: 3/4
K: Aminor
c2Ac B2^GB A3g|^fe^df e4 B3=d|cBcd e2fe dcBc|A^GAB cABG E4|
c2Ac B2^GB A3g|^fe^df e4 B3=d|cBcd e2c2 B2A2|^GABc A8:|
a2ba g2dg e2c2|e2fe dcBc A2E2|A3B cBcd e2g2|^fe^df e6B2|
a2ba g2dg e2c2|e2fe dcBc A2E2|A3B cBcd e2c2|B2A2 ^GABc A4:|

